svgs/regular/square-y.svg

<svg xmlns="http://www.w3.org/2000/svg" viewBox="0 0 448 512"><!-- Font Awesome Pro 6.0.0-alpha2 by @fontawesome - https://fontawesome.com License - https://fontawesome.com/license (Commercial License) --><path d="M384 32H64C28.654 32 0 60.654 0 96V416C0 451.346 28.654 480 64 480H384C419.346 480 448 451.346 448 416V96C448 60.654 419.346 32 384 32ZM400 416C400 424.822 392.822 432 384 432H64C55.178 432 48 424.822 48 416V96C48 87.178 55.178 80 64 80H384C392.822 80 400 87.178 400 96V416ZM309.781 136.375L224 236.453L138.219 136.375C129.594 126.344 114.453 125.156 104.375 133.781C94.312 142.406 93.156 157.562 101.781 167.625L200 282.209V360C200 373.25 210.75 384 224 384S248 373.25 248 360V282.209L346.219 167.625C354.844 157.563 353.687 142.406 343.625 133.781C333.547 125.109 318.422 126.328 309.781 136.375Z"/></svg>

<svg xmlns="http://www.w3.org/2000/svg" viewBox="0 0 448 512"><!--! Font Awesome Pro 6.0.0-alpha3 by @fontawesome - https://fontawesome.com License - https://fontawesome.com/license (Commercial License) --><path d="M384 32H64C28.65 32 0 60.65 0 96v320c0 35.35 28.65 64 64 64h320c35.35 0 64-28.65 64-64V96C448 60.65 419.3 32 384 32zM400 416c0 8.822-7.178 16-16 16H64c-8.822 0-16-7.178-16-16V96c0-8.822 7.178-16 16-16h320c8.822 0 16 7.178 16 16V416zM309.8 136.4L224 236.5L138.2 136.4C129.6 126.3 114.5 125.2 104.4 133.8C94.31 142.4 93.16 157.6 101.8 167.6L200 282.2V360C200 373.3 210.8 384 224 384s24-10.75 24-24V282.2l98.22-114.6c8.625-10.06 7.469-25.22-2.594-33.84C333.5 125.1 318.4 126.3 309.8 136.4z"/></svg>
